X: 43649
T: Zinnia's Favourite
R: jig
M: 6/8
K: Aminor
|:C2 E DCA,|G,CE DCA,|F3 EFG|D3-D2 B,|
C2 E DCA,|G,FE DCA,|C2 E DCA,|1 G,3 G,A,B,:|2 G,3 G,CD||
E2 A, A,B,C|D2 G, G,B,D|F3 EFG|D6|
E2 A, A,B,C|D2 G, G,B,D|C3 B,CG,|A,3- A,CD|
E2 A, A,B,C|D2 G, G,B,D|F3 EFG|D6|
E2 A, A,B,C|D2 G F3|EDC DCA,|G,3- G,A,B,||

